src/components/00-materials/images-raw/Cigarette.svg

<svg width="96" height="96" viewBox="0 0 96 96" fill="none" xmlns="http://www.w3.org/2000/svg">
<path d="M5 58.3597L10.71 71.6997M18.077 52.7817L85.294 24.0007L91.005 37.3387L23.788 66.1207L18.077 52.7817ZM13.53 54.6997L19.24 68.0397L13.53 54.6997ZM9.26 56.5297L14.97 69.8697L9.26 56.5297Z" stroke="#00008F" stroke-width="2" stroke-linecap="round" stroke-linejoin="round"/>
</svg>

<svg width="96" height="96" viewBox="0 0 96 96" fill="none" xmlns="http://www.w3.org/2000/svg"><path d="M5 58.36l5.71 13.34m7.367-18.918L85.294 24l5.711 13.338L23.788 66.12l-5.711-13.34zM13.53 54.7l5.71 13.34-5.71-13.34zm-4.27 1.83l5.71 13.34-5.71-13.34z" stroke="#00008F" stroke-width="2" stroke-linecap="round" stroke-linejoin="round"/></svg>
